img/icon-detect.svg

<svg width="20" height="20" viewBox="0 0 20 20" fill="none" xmlns="http://www.w3.org/2000/svg">
<path d="M10 20C4.48593 20 0 15.5141 0 10.0001C0 4.48599 4.48593 0 10 0C15.5141 0 20 4.48599 20 10.0001C20 15.5141 15.5141 20 10 20ZM10.6802 1.38646V5.51266C10.6802 5.88808 10.3757 6.19259 10 6.19259C9.62434 6.19259 9.31976 5.88815 9.31976 5.51266V1.38646C5.09698 1.71697 1.71734 5.09704 1.38709 9.32007H5.51063C5.88622 9.32007 6.19087 9.62451 6.19087 10C6.19087 10.3755 5.88622 10.6799 5.51063 10.6799H1.38709C1.71734 14.903 5.09698 18.283 9.31976 18.6135V14.4873C9.31976 14.1119 9.62434 13.8074 10 13.8074C10.3757 13.8074 10.6802 14.1119 10.6802 14.4873V18.6135C14.9031 18.283 18.2827 14.903 18.6129 10.6799H14.4894C14.1138 10.6799 13.8091 10.3755 13.8091 10C13.8091 9.62451 14.1137 9.32007 14.4894 9.32007H18.6129C18.2826 5.09697 14.903 1.71697 10.6802 1.38646Z" fill="#F2890F"/>
</svg>

<svg width="20" height="20" fill="none" xmlns="http://www.w3.org/2000/svg"><path d="M10 20C4.486 20 0 15.514 0 10S4.486 0 10 0s10 4.486 10 10-4.486 10-10 10zm.68-18.614v4.127a.68.68 0 01-1.36 0V1.386c-4.223.331-7.603 3.711-7.933 7.934h4.124a.68.68 0 110 1.36H1.387a8.653 8.653 0 007.933 7.933v-4.126a.68.68 0 011.36 0v4.126a8.654 8.654 0 007.933-7.933h-4.124a.68.68 0 110-1.36h4.124c-.33-4.223-3.71-7.603-7.933-7.934z" fill="#F2890F"/></svg>
